images/wordmark.svg

<svg width="406" height="87" viewBox="0 0 406 87" fill="none" xmlns="http://www.w3.org/2000/svg">
<path d="M18.5795 70V30.7273H31.9773V38.1932H32.3864C33.2045 35.7386 34.6023 33.7955 36.5795 32.3636C38.5568 30.9318 40.9091 30.2159 43.6364 30.2159C46.3977 30.2159 48.7756 30.9489 50.7699 32.4148C52.7642 33.8636 53.9659 35.7898 54.375 38.1932H54.7841C55.4489 35.7898 56.8636 33.8636 59.0284 32.4148C61.1932 30.9489 63.733 30.2159 66.6477 30.2159C70.4148 30.2159 73.4659 31.4261 75.8011 33.8466C78.1534 36.267 79.3295 39.4886 79.3295 43.5114V70H65.2159V47.0909C65.2159 45.3693 64.7813 44.0227 63.9119 43.0511C63.0426 42.0625 61.875 41.5682 60.4091 41.5682C58.9602 41.5682 57.8097 42.0625 56.9574 43.0511C56.1222 44.0227 55.7045 45.3693 55.7045 47.0909V70H42.2045V47.0909C42.2045 45.3693 41.7699 44.0227 40.9006 43.0511C40.0313 42.0625 38.8636 41.5682 37.3977 41.5682C36.4261 41.5682 35.5909 41.7898 34.892 42.233C34.1932 42.6761 33.6477 43.3153 33.2557 44.1506C32.8807 44.9687 32.6932 45.9489 32.6932 47.0909V70H18.5795ZM93.6337 70.6136C91.128 70.6136 88.9121 70.2045 86.9859 69.3864C85.0768 68.5511 83.5768 67.2898 82.4859 65.6023C81.395 63.9148 80.8496 61.767 80.8496 59.1591C80.8496 57.0114 81.2161 55.179 81.949 53.6619C82.682 52.1278 83.7047 50.875 85.0172 49.9034C86.3297 48.9318 87.8553 48.1903 89.5939 47.679C91.3496 47.1676 93.2416 46.8352 95.27 46.6818C97.4689 46.5114 99.2331 46.3068 100.563 46.0682C101.909 45.8125 102.881 45.4631 103.477 45.0199C104.074 44.5597 104.372 43.9545 104.372 43.2045V43.1023C104.372 42.0795 103.98 41.2955 103.196 40.75C102.412 40.2045 101.406 39.9318 100.179 39.9318C98.8325 39.9318 97.7331 40.2301 96.8808 40.8267C96.0456 41.4062 95.5428 42.3011 95.3723 43.5114H82.3837C82.5541 41.125 83.3126 38.9261 84.6592 36.9148C86.0229 34.8864 88.0087 33.267 90.6166 32.0568C93.2246 30.8295 96.4803 30.2159 100.384 30.2159C103.196 30.2159 105.719 30.5483 107.952 31.2131C110.185 31.8608 112.085 32.7727 113.654 33.9489C115.222 35.108 116.415 36.4716 117.233 38.0398C118.068 39.5909 118.486 41.2784 118.486 43.1023V70H105.293V64.4773H104.986C104.202 65.9432 103.247 67.1278 102.122 68.0312C101.014 68.9347 99.7445 69.5909 98.3126 70C96.8979 70.4091 95.3382 70.6136 93.6337 70.6136ZM98.2359 61.7159C99.3098 61.7159 100.315 61.4943 101.253 61.0511C102.208 60.608 102.983 59.9687 103.58 59.1335C104.176 58.2983 104.475 57.2841 104.475 56.0909V52.8182C104.1 52.9716 103.699 53.1165 103.273 53.2528C102.864 53.3892 102.421 53.517 101.943 53.6364C101.483 53.7557 100.989 53.8665 100.46 53.9688C99.949 54.071 99.4121 54.1648 98.8496 54.25C97.7587 54.4205 96.8638 54.7017 96.1649 55.0938C95.4831 55.4688 94.9717 55.9375 94.6308 56.5C94.307 57.0455 94.145 57.6591 94.145 58.3409C94.145 59.4318 94.5286 60.267 95.2956 60.8466C96.0626 61.4261 97.0428 61.7159 98.2359 61.7159ZM145.05 30.7273V40.9545H119.175V30.7273H145.05ZM124.186 21.3182H138.3V57.3693C138.3 57.9148 138.394 58.375 138.581 58.75C138.769 59.108 139.059 59.3807 139.451 59.5682C139.843 59.7386 140.345 59.8239 140.959 59.8239C141.385 59.8239 141.88 59.7727 142.442 59.6705C143.022 59.5682 143.448 59.483 143.72 59.4148L145.766 69.3352C145.135 69.5227 144.232 69.7528 143.056 70.0256C141.897 70.2983 140.516 70.4773 138.914 70.5625C135.675 70.733 132.956 70.4006 130.757 69.5653C128.559 68.7131 126.905 67.375 125.797 65.5511C124.689 63.7273 124.152 61.4432 124.186 58.6989V21.3182ZM170.63 30.7273V40.9545H144.755V30.7273H170.63ZM149.766 21.3182H163.88V57.3693C163.88 57.9148 163.973 58.375 164.161 58.75C164.348 59.108 164.638 59.3807 165.03 59.5682C165.422 59.7386 165.925 59.8239 166.539 59.8239C166.965 59.8239 167.459 59.7727 168.022 59.6705C168.601 59.5682 169.027 59.483 169.3 59.4148L171.346 69.3352C170.715 69.5227 169.812 69.7528 168.635 70.0256C167.476 70.2983 166.096 70.4773 164.493 70.5625C161.255 70.733 158.536 70.4006 156.337 69.5653C154.138 68.7131 152.485 67.375 151.377 65.5511C150.269 63.7273 149.732 61.4432 149.766 58.6989V21.3182ZM191.185 70.7159C186.992 70.7159 183.378 69.9148 180.344 68.3125C177.327 66.6932 175.001 64.375 173.364 61.358C171.745 58.3239 170.935 54.6932 170.935 50.4659C170.935 46.4091 171.753 42.8636 173.39 39.8295C175.026 36.7955 177.336 34.4347 180.319 32.7472C183.302 31.0597 186.822 30.2159 190.878 30.2159C193.844 30.2159 196.529 30.6761 198.932 31.5966C201.336 32.517 203.39 33.8551 205.094 35.6108C206.799 37.3494 208.111 39.4631 209.032 41.9517C209.952 44.4403 210.413 47.2443 210.413 50.3636V53.6364H175.333V45.8636H197.424C197.407 44.7386 197.117 43.75 196.555 42.8977C196.009 42.0284 195.268 41.3551 194.33 40.8778C193.41 40.3835 192.361 40.1364 191.185 40.1364C190.043 40.1364 188.995 40.3835 188.04 40.8778C187.086 41.3551 186.319 42.0199 185.739 42.8722C185.177 43.7244 184.878 44.7216 184.844 45.8636V54.25C184.844 55.5114 185.109 56.6364 185.637 57.625C186.165 58.6136 186.924 59.3892 187.913 59.9517C188.901 60.5142 190.094 60.7955 191.492 60.7955C192.464 60.7955 193.35 60.6591 194.151 60.3864C194.969 60.1136 195.668 59.7216 196.248 59.2102C196.827 58.6818 197.253 58.0511 197.526 57.3182H210.413C209.969 60.0455 208.921 62.4148 207.268 64.4261C205.614 66.4205 203.424 67.9716 200.697 69.0795C197.986 70.1705 194.816 70.7159 191.185 70.7159ZM212.572 70V30.7273H226.276V38.1932H226.685C227.401 35.4318 228.535 33.4119 230.086 32.1335C231.654 30.8551 233.487 30.2159 235.583 30.2159C236.197 30.2159 236.802 30.267 237.398 30.3693C238.012 30.4545 238.6 30.5824 239.163 30.7528V42.7955C238.464 42.5568 237.603 42.3778 236.58 42.2585C235.558 42.1392 234.68 42.0795 233.947 42.0795C232.566 42.0795 231.322 42.3949 230.214 43.0256C229.123 43.6392 228.262 44.5085 227.631 45.6335C227.001 46.7415 226.685 48.0455 226.685 49.5455V70H212.572ZM268.832 30.7273V34.6903H250.09V30.7273H268.832ZM255.946 21.3182H260.522V59.7472C260.522 61.3835 260.804 62.6705 261.366 63.608C261.929 64.5284 262.662 65.1847 263.565 65.5767C264.468 65.9517 265.431 66.1392 266.454 66.1392C267.051 66.1392 267.562 66.1051 267.988 66.0369C268.414 65.9517 268.789 65.8665 269.113 65.7812L270.085 69.8977C269.642 70.0682 269.096 70.2216 268.448 70.358C267.801 70.5114 267 70.5881 266.045 70.5881C264.375 70.5881 262.764 70.2216 261.213 69.4886C259.679 68.7557 258.417 67.6648 257.429 66.2159C256.44 64.767 255.946 62.9688 255.946 60.821V21.3182ZM288.97 70.8182C285.578 70.8182 282.578 69.9574 279.97 68.2358C277.379 66.5142 275.351 64.1364 273.885 61.1023C272.419 58.0511 271.686 54.5312 271.686 50.5426C271.686 46.5199 272.419 42.983 273.885 39.9318C275.351 36.8636 277.379 34.4773 279.97 32.7727C282.578 31.0511 285.578 30.1903 288.97 30.1903C292.362 30.1903 295.354 31.0511 297.945 32.7727C300.536 34.4943 302.564 36.8807 304.03 39.9318C305.513 42.983 306.254 46.5199 306.254 50.5426C306.254 54.5312 305.521 58.0511 304.055 61.1023C302.59 64.1364 300.553 66.5142 297.945 68.2358C295.354 69.9574 292.362 70.8182 288.97 70.8182ZM288.97 66.6506C291.697 66.6506 294.007 65.9176 295.899 64.4517C297.791 62.9858 299.223 61.0341 300.195 58.5966C301.183 56.1591 301.678 53.4744 301.678 50.5426C301.678 47.6108 301.183 44.9176 300.195 42.4631C299.223 40.0085 297.791 38.0398 295.899 36.5568C294.007 35.0739 291.697 34.3324 288.97 34.3324C286.26 34.3324 283.95 35.0739 282.041 36.5568C280.149 38.0398 278.709 40.0085 277.72 42.4631C276.749 44.9176 276.263 47.6108 276.263 50.5426C276.263 53.4744 276.749 56.1591 277.72 58.5966C278.709 61.0341 280.149 62.9858 282.041 64.4517C283.933 65.9176 286.243 66.6506 288.97 66.6506ZM326.469 70.8182C323.077 70.8182 320.077 69.9574 317.469 68.2358C314.878 66.5142 312.85 64.1364 311.384 61.1023C309.918 58.0511 309.185 54.5312 309.185 50.5426C309.185 46.5199 309.918 42.983 311.384 39.9318C312.85 36.8636 314.878 34.4773 317.469 32.7727C320.077 31.0511 323.077 30.1903 326.469 30.1903C329.861 30.1903 332.853 31.0511 335.444 32.7727C338.035 34.4943 340.063 36.8807 341.529 39.9318C343.012 42.983 343.753 46.5199 343.753 50.5426C343.753 54.5312 343.02 58.0511 341.555 61.1023C340.089 64.1364 338.052 66.5142 335.444 68.2358C332.853 69.9574 329.861 70.8182 326.469 70.8182ZM326.469 66.6506C329.197 66.6506 331.506 65.9176 333.398 64.4517C335.29 62.9858 336.722 61.0341 337.694 58.5966C338.682 56.1591 339.177 53.4744 339.177 50.5426C339.177 47.6108 338.682 44.9176 337.694 42.4631C336.722 40.0085 335.29 38.0398 333.398 36.5568C331.506 35.0739 329.197 34.3324 326.469 34.3324C323.759 34.3324 321.449 35.0739 319.54 36.5568C317.648 38.0398 316.208 40.0085 315.219 42.4631C314.248 44.9176 313.762 47.6108 313.762 50.5426C313.762 53.4744 314.248 56.1591 315.219 58.5966C316.208 61.0341 317.648 62.9858 319.54 64.4517C321.432 65.9176 323.742 66.6506 326.469 66.6506ZM353.255 17.6364V70H348.704V17.6364H353.255ZM386.644 39.3438L382.477 40.5199C382.068 39.3437 381.488 38.2784 380.738 37.3239C379.988 36.3693 379.008 35.6108 377.798 35.0483C376.605 34.4858 375.122 34.2045 373.349 34.2045C370.69 34.2045 368.508 34.8352 366.803 36.0966C365.099 37.358 364.247 38.9858 364.247 40.9801C364.247 42.6676 364.826 44.0398 365.985 45.0966C367.161 46.1364 368.968 46.9631 371.406 47.5767L377.337 49.0341C380.627 49.8352 383.09 51.1051 384.727 52.8438C386.38 54.5824 387.207 56.7642 387.207 59.3892C387.207 61.6051 386.593 63.5739 385.366 65.2955C384.139 67.017 382.426 68.3722 380.227 69.3608C378.045 70.3324 375.514 70.8182 372.633 70.8182C368.798 70.8182 365.636 69.9574 363.147 68.2358C360.658 66.4972 359.065 63.9915 358.366 60.7188L362.738 59.6449C363.301 61.9801 364.4 63.7443 366.036 64.9375C367.69 66.1307 369.863 66.7273 372.556 66.7273C375.573 66.7273 377.985 66.054 379.792 64.7074C381.599 63.3437 382.502 61.6392 382.502 59.5938C382.502 58.0085 381.974 56.679 380.917 55.6051C379.86 54.5142 378.258 53.7131 376.11 53.2017L369.693 51.6676C366.283 50.8494 363.761 49.554 362.124 47.7812C360.488 46.0085 359.67 43.8097 359.67 41.1847C359.67 39.0199 360.258 37.1193 361.434 35.483C362.61 33.8295 364.23 32.5341 366.292 31.5966C368.355 30.6591 370.707 30.1903 373.349 30.1903C376.945 30.1903 379.818 31.0085 381.965 32.6449C384.13 34.2642 385.69 36.4972 386.644 39.3438Z" fill="#fff"/>
<circle cx="242.5" cy="66.5" r="2.5" stroke="#fff" stroke-width="2"/>
</svg>

<svg xmlns="http://www.w3.org/2000/svg" width="406" height="87" fill="none"><path fill="#fff" d="M18.58 70V30.727h13.397v7.466h.41c.818-2.454 2.215-4.398 4.193-5.83 1.977-1.431 4.33-2.147 7.056-2.147 2.762 0 5.14.733 7.134 2.199 1.994 1.449 3.196 3.375 3.605 5.778h.41c.664-2.403 2.079-4.33 4.243-5.778 2.165-1.466 4.705-2.2 7.62-2.2 3.767 0 6.818 1.211 9.153 3.632 2.352 2.42 3.528 5.642 3.528 9.664V70H65.216V47.09c0-1.72-.435-3.067-1.304-4.039-.87-.989-2.037-1.483-3.503-1.483-1.449 0-2.6.495-3.452 1.483-.835.972-1.252 2.318-1.252 4.04V70h-13.5V47.09c0-1.72-.435-3.067-1.304-4.039-.87-.989-2.037-1.483-3.503-1.483-.972 0-1.807.222-2.506.665-.699.443-1.244 1.082-1.636 1.918-.375.818-.563 1.798-.563 2.94V70H18.58Zm75.054.614c-2.506 0-4.722-.41-6.648-1.228-1.91-.835-3.41-2.096-4.5-3.784-1.091-1.687-1.636-3.835-1.636-6.443 0-2.148.366-3.98 1.099-5.497.733-1.534 1.756-2.787 3.068-3.759 1.313-.971 2.838-1.713 4.577-2.224 1.756-.511 3.648-.844 5.676-.997 2.199-.17 3.963-.375 5.293-.614 1.346-.255 2.318-.605 2.914-1.048.597-.46.895-1.066.895-1.816v-.102c0-1.022-.392-1.806-1.176-2.352-.784-.545-1.79-.818-3.017-.818-1.347 0-2.446.298-3.298.895-.835.58-1.338 1.474-1.509 2.684H82.384c.17-2.386.929-4.585 2.275-6.596 1.364-2.029 3.35-3.648 5.958-4.858 2.608-1.228 5.863-1.841 9.767-1.841 2.812 0 5.335.332 7.568.997 2.233.648 4.133 1.56 5.702 2.736 1.568 1.159 2.761 2.523 3.579 4.09.835 1.552 1.253 3.24 1.253 5.063V70h-13.193v-5.523h-.307c-.784 1.466-1.739 2.65-2.864 3.554A10.534 10.534 0 0 1 98.312 70c-1.414.41-2.974.614-4.678.614Zm4.602-8.898c1.074 0 2.079-.222 3.017-.665a5.815 5.815 0 0 0 2.327-1.918c.596-.835.895-1.849.895-3.042v-3.273a16.29 16.29 0 0 1-1.202.435 18 18 0 0 1-1.33.383c-.46.12-.954.23-1.483.333-.511.102-1.048.196-1.61.281-1.091.17-1.986.452-2.685.844-.682.375-1.193.843-1.534 1.406a3.538 3.538 0 0 0-.486 1.84c0 1.092.384 1.927 1.15 2.507.768.58 1.748.869 2.94.869Zm46.814-30.989v10.228h-25.875V30.727h25.875Zm-20.864-9.409H138.3V57.37c0 .546.094 1.006.281 1.381.188.358.478.63.87.818.392.17.894.256 1.508.256.426 0 .921-.051 1.483-.154.58-.102 1.006-.187 1.278-.255l2.046 9.92c-.631.188-1.534.418-2.71.69-1.159.273-2.54.452-4.142.537-3.239.171-5.958-.161-8.157-.997-2.198-.852-3.852-2.19-4.96-4.014-1.108-1.824-1.645-4.108-1.611-6.852v-37.38Zm46.444 9.41v10.227h-25.875V30.727h25.875Zm-20.864-9.41h14.114V57.37c0 .546.093 1.006.281 1.381.187.358.477.63.869.818.392.17.895.256 1.509.256.426 0 .92-.051 1.483-.154a20.631 20.631 0 0 0 1.278-.255l2.046 9.92c-.631.188-1.534.418-2.711.69-1.159.273-2.539.452-4.142.537-3.238.171-5.957-.161-8.156-.997-2.199-.852-3.852-2.19-4.96-4.014-1.108-1.824-1.645-4.108-1.611-6.852v-37.38Zm41.419 49.398c-4.193 0-7.807-.801-10.841-2.403-3.017-1.62-5.343-3.938-6.98-6.955-1.619-3.034-2.429-6.665-2.429-10.892 0-4.057.818-7.602 2.455-10.636 1.636-3.035 3.946-5.395 6.929-7.083 2.983-1.687 6.503-2.531 10.559-2.531 2.966 0 5.651.46 8.054 1.38 2.404.921 4.458 2.26 6.162 4.015 1.705 1.738 3.017 3.852 3.938 6.34.92 2.49 1.381 5.293 1.381 8.413v3.272h-35.08v-7.772h22.091c-.017-1.125-.307-2.114-.869-2.966a5.54 5.54 0 0 0-2.225-2.02c-.92-.495-1.969-.742-3.145-.742-1.142 0-2.19.247-3.145.742a5.949 5.949 0 0 0-2.301 1.994c-.562.852-.861 1.85-.895 2.992v8.386c0 1.261.265 2.386.793 3.375a5.745 5.745 0 0 0 2.276 2.327c.988.562 2.181.843 3.579.843.972 0 1.858-.136 2.659-.409.818-.272 1.517-.664 2.097-1.176a4.79 4.79 0 0 0 1.278-1.892h12.887c-.444 2.727-1.492 5.097-3.145 7.108-1.654 1.995-3.844 3.546-6.571 4.653-2.711 1.092-5.881 1.637-9.512 1.637ZM212.572 70V30.727h13.704v7.466h.409c.716-2.761 1.85-4.781 3.401-6.06 1.568-1.278 3.401-1.917 5.497-1.917.614 0 1.219.051 1.815.153.614.085 1.202.213 1.765.384v12.042c-.699-.238-1.56-.417-2.583-.537-1.022-.119-1.9-.178-2.633-.178-1.381 0-2.625.315-3.733.946a6.668 6.668 0 0 0-2.583 2.607c-.63 1.108-.946 2.412-.946 3.912V70h-14.113Zm56.26-39.273v3.963H250.09v-3.963h18.742Zm-12.886-9.409h4.576v38.43c0 1.636.282 2.922.844 3.86.563.92 1.296 1.577 2.199 1.969a7.457 7.457 0 0 0 2.889.562 9.87 9.87 0 0 0 1.534-.102c.426-.085.801-.17 1.125-.256l.972 4.117c-.443.17-.989.324-1.637.46-.647.153-1.448.23-2.403.23-1.67 0-3.281-.366-4.832-1.1-1.534-.732-2.796-1.823-3.784-3.272-.989-1.449-1.483-3.247-1.483-5.395V21.318Zm33.024 49.5c-3.392 0-6.392-.86-9-2.582-2.591-1.722-4.619-4.1-6.085-7.134-1.466-3.05-2.199-6.57-2.199-10.56 0-4.022.733-7.559 2.199-10.61 1.466-3.068 3.494-5.455 6.085-7.16 2.608-1.72 5.608-2.582 9-2.582 3.392 0 6.384.861 8.975 2.583 2.591 1.721 4.619 4.108 6.085 7.159 1.483 3.051 2.224 6.588 2.224 10.61 0 3.99-.733 7.51-2.199 10.56-1.465 3.034-3.502 5.412-6.11 7.134-2.591 1.721-5.583 2.582-8.975 2.582Zm0-4.167c2.727 0 5.037-.733 6.929-2.2 1.892-1.465 3.324-3.417 4.296-5.854.988-2.438 1.483-5.123 1.483-8.054 0-2.932-.495-5.625-1.483-8.08-.972-2.455-2.404-4.423-4.296-5.906-1.892-1.483-4.202-2.225-6.929-2.225-2.71 0-5.02.742-6.929 2.225-1.892 1.483-3.332 3.451-4.321 5.906-.971 2.455-1.457 5.148-1.457 8.08 0 2.931.486 5.616 1.457 8.054.989 2.437 2.429 4.389 4.321 5.855 1.892 1.466 4.202 2.199 6.929 2.199Zm37.499 4.167c-3.392 0-6.392-.86-9-2.582-2.591-1.722-4.619-4.1-6.085-7.134-1.466-3.05-2.199-6.57-2.199-10.56 0-4.022.733-7.559 2.199-10.61 1.466-3.068 3.494-5.455 6.085-7.16 2.608-1.72 5.608-2.582 9-2.582 3.392 0 6.384.861 8.975 2.583 2.591 1.721 4.619 4.108 6.085 7.159 1.483 3.051 2.224 6.588 2.224 10.61 0 3.99-.733 7.51-2.198 10.56-1.466 3.034-3.503 5.412-6.111 7.134-2.591 1.721-5.583 2.582-8.975 2.582Zm0-4.167c2.728 0 5.037-.733 6.929-2.2 1.892-1.465 3.324-3.417 4.296-5.854.988-2.438 1.483-5.123 1.483-8.054 0-2.932-.495-5.625-1.483-8.08-.972-2.455-2.404-4.423-4.296-5.906-1.892-1.483-4.201-2.225-6.929-2.225-2.71 0-5.02.742-6.929 2.225-1.892 1.483-3.332 3.451-4.321 5.906-.971 2.455-1.457 5.148-1.457 8.08 0 2.931.486 5.616 1.457 8.054.989 2.437 2.429 4.389 4.321 5.855 1.892 1.466 4.202 2.199 6.929 2.199Zm26.786-49.015V70h-4.551V17.636h4.551Zm33.389 21.708-4.167 1.176a10.958 10.958 0 0 0-1.739-3.196c-.75-.955-1.73-1.713-2.94-2.276-1.193-.562-2.676-.843-4.449-.843-2.659 0-4.841.63-6.546 1.892-1.704 1.261-2.556 2.889-2.556 4.883 0 1.688.579 3.06 1.738 4.117 1.176 1.04 2.983 1.866 5.421 2.48l5.931 1.457c3.29.801 5.753 2.071 7.39 3.81 1.653 1.738 2.48 3.92 2.48 6.545 0 2.216-.614 4.185-1.841 5.907-1.227 1.721-2.94 3.076-5.139 4.065-2.182.971-4.713 1.457-7.594 1.457-3.835 0-6.997-.86-9.486-2.582-2.489-1.739-4.082-4.245-4.781-7.517l4.372-1.074c.563 2.335 1.662 4.1 3.298 5.292 1.654 1.194 3.827 1.79 6.52 1.79 3.017 0 5.429-.673 7.236-2.02 1.807-1.363 2.71-3.068 2.71-5.113 0-1.586-.528-2.915-1.585-3.989-1.057-1.09-2.659-1.892-4.807-2.403l-6.417-1.534c-3.41-.819-5.932-2.114-7.569-3.887-1.636-1.773-2.454-3.971-2.454-6.596 0-2.165.588-4.066 1.764-5.702 1.176-1.653 2.796-2.949 4.858-3.886 2.063-.938 4.415-1.407 7.057-1.407 3.596 0 6.469.819 8.616 2.455 2.165 1.62 3.725 3.852 4.679 6.699Z"/><circle cx="242.5" cy="66.5" r="2.5" stroke="#fff" stroke-width="2"/></svg>
